images/social/youtube.svg

<svg xmlns="http://www.w3.org/2000/svg" width="219.54" height="154.49" viewBox="0 0 219.54 154.49"><defs><style>.a{fill:#fff;}</style></defs><title>youtube</title><path class="a" d="M91.32,32.44q35.37-.54,70.73.91c10.62.53,21.3.4,31.82,2.12,8.35,1.66,16.14,7.2,19.56,15.12,5.5,12,5.17,25.54,6.28,38.45.09,18.64.87,37.35-1.14,55.91a64.89,64.89,0,0,1-5.06,23.44c-3.26,7.67-10.61,13.16-18.61,15.07-9.5,1.85-19.22,1.64-28.84,2.19C123.73,187.49,81.31,187,39,185c-8.09-1-16.79-1.37-23.65-6.33C6.64,172.85,4,161.85,2.5,152.12,1.29,139.79.24,127.4.41,115c0-11.64-.23-23.31,1-34.9C2,69.5,2.87,58.52,7.82,48.92c2.51-5,7-8.72,11.93-11.19,6.58-3.23,14.11-3,21.25-3.7,16.77-.62,33.53-1.43,50.32-1.59m-3.6,44.31c-.19,20.44,0,40.89-.1,61.34,19.61-10.44,39.55-20.28,59-30.91C126.88,97.33,107.54,86.55,87.72,76.75Z" transform="translate(-0.39 -32.29)"/></svg>

<?xml version="1.0" encoding="UTF-8" ?>
<!DOCTYPE svg PUBLIC "-//W3C//DTD SVG 1.1//EN" "http://www.w3.org/Graphics/SVG/1.1/DTD/svg11.dtd">
<svg width="220pt" height="220pt" viewBox="0 0 220 220" version="1.1" xmlns="http://www.w3.org/2000/svg">
<g>
<path fill="#fff" opacity="1.00" d=" M 91.32 32.44 C 114.90 32.08 138.49 32.38 162.05 33.35 C 172.67 33.88 183.35 33.75 193.87 35.47 C 202.22 37.13 210.01 42.67 213.43 50.59 C 218.93 62.63 218.60 76.13 219.71 89.04 C 219.80 107.68 220.58 126.39 218.57 144.95 C 218.25 152.97 216.74 161.01 213.51 168.39 C 210.25 176.06 202.90 181.55 194.90 183.46 C 185.40 185.31 175.68 185.10 166.06 185.65 C 123.73 187.49 81.31 186.96 39.00 185.00 C 30.91 184.02 22.21 183.63 15.35 178.67 C 6.64 172.85 4.02 161.85 2.50 152.12 C 1.29 139.79 0.24 127.40 0.41 115.00 C 0.41 103.36 0.18 91.69 1.38 80.10 C 1.97 69.50 2.87 58.52 7.82 48.92 C 10.33 43.94 14.82 40.20 19.75 37.73 C 26.33 34.50 33.86 34.69 41.00 34.03 C 57.77 33.41 74.53 32.60 91.32 32.44 M 87.72 76.75 C 87.53 97.19 87.74 117.64 87.62 138.09 C 107.23 127.65 127.17 117.81 146.67 107.18 C 126.88 97.33 107.54 86.55 87.72 76.75 Z" />
</g>
</svg>
